src/shared/assets/icons/ic-arrow-left.svg

<svg width="24" height="24" viewBox="0 0 24 24" fill="none" xmlns="http://www.w3.org/2000/svg">
<path d="M5.48145 12.8754L5.37988 12.8705C4.87543 12.8195 4.48145 12.3933 4.48145 11.8754C4.48145 11.3575 4.87543 10.9313 5.37988 10.8803L5.48145 10.8754L19 10.8754C19.5523 10.8754 20 11.3231 20 11.8754C20 12.4277 19.5523 12.8754 19 12.8754L5.48145 12.8754Z" fill="black"/>
<path d="M8.48328 6.36173C8.85 5.94876 9.48243 5.91103 9.89539 6.27774C10.3081 6.64434 10.3457 7.27593 9.97938 7.68887L8.48328 6.36173ZM9.92176 17.4496C9.54736 17.8073 8.96824 17.817 8.58289 17.4877L8.50867 17.4174L4.04383 12.7436C3.70685 12.3908 3.67572 11.851 3.95789 11.4643L4.01844 11.3891L8.48328 6.36173L9.97938 7.68887L6.12684 12.0287L9.95399 16.0365L10.0214 16.1137C10.3326 16.5137 10.2961 17.092 9.92176 17.4496Z" fill="black"/>
</svg>

<svg xmlns="http://www.w3.org/2000/svg" fill="none" viewBox="0 0 24 24"><path fill="#000" d="m5.481 12.875-.101-.005a1 1 0 0 1 0-1.99l.101-.005H19a1 1 0 1 1 0 2z"/><path fill="#000" d="M8.483 6.362A1 1 0 0 1 9.98 7.689zM9.922 17.45a1 1 0 0 1-1.34.038l-.073-.07-4.465-4.674a1 1 0 0 1-.086-1.28l.06-.075 4.465-5.027L9.98 7.689l-3.852 4.34 3.827 4.008.067.077a1 1 0 0 1-.1 1.336"/></svg>
